svg/fluentui-system-icons/ic_fluent_calligraphy_pen_24_filled.svg

<svg width="24" height="24" viewBox="0 0 24 24" fill="none" xmlns="http://www.w3.org/2000/svg">
<path d="M7.5 2.75C7.5 2.33579 7.16421 2 6.75 2C6.33579 2 6 2.33579 6 2.75V5.75C6 6.64648 6.67409 7.38552 7.54305 7.48789L6.52732 9.99292C6.11943 10.9988 6.16369 12.1753 6.64554 13.1355L10.6354 21.0866C10.7846 21.384 10.9988 21.621 11.25 21.7791V12.2993C10.8016 12.04 10.5 11.5552 10.5 11C10.5 10.1716 11.1716 9.5 12 9.5C12.8284 9.5 13.5 10.1716 13.5 11C13.5 11.5552 13.1984 12.04 12.75 12.2993V21.7791C13.0012 21.621 13.2154 21.384 13.3646 21.0866L17.3545 13.1355C17.8363 12.1753 17.8806 10.9988 17.4727 9.99292L16.4569 7.48789C17.3259 7.38552 18 6.64648 18 5.75V2.75C18 2.33579 17.6642 2 17.25 2C16.8358 2 16.5 2.33579 16.5 2.75V5.75C16.5 5.88807 16.3881 6 16.25 6H7.75C7.61193 6 7.5 5.88807 7.5 5.75V2.75Z" fill="#212121"/>
</svg>

<svg xmlns="http://www.w3.org/2000/svg" width="24" height="24"><path d="M7.5 2.75a.75.75 0 0 0-1.5 0v3a1.75 1.75 0 0 0 1.543 1.738L6.527 9.993a3.868 3.868 0 0 0 .119 3.143l3.99 7.95c.149.298.363.535.614.693V12.3a1.5 1.5 0 1 1 1.5 0v9.48c.251-.158.465-.395.615-.692l3.99-7.951c.481-.96.526-2.137.118-3.143l-1.016-2.505A1.75 1.75 0 0 0 18 5.75v-3a.75.75 0 0 0-1.5 0v3a.25.25 0 0 1-.25.25h-8.5a.25.25 0 0 1-.25-.25v-3Z"/></svg>
